X: 135014
T: The HARE'S FOOT
Q: "Irish Reel."
R: Reel.
%R: reel
B: James Kerr "Merry Melodies" v.1 p.35 s.0 #14
Z: 2017 John Chambers <jc:trillian.mit.edu>
M: 2/4
L: 1/16
K: Em
|: ue2 |\
G2GA BEE2 | BEdE BEEF |\
G2(GA) BABd | egfd e2 :|\
(ef) |\
(3(gag) (3(fgf) edBc | d2ed Bdd2 |
(3(gag) (3(fgf) edBd | egfd e2(ef) |\
(3(gag) (3(fgf) edBc | d2(ed) Bddg |\
bgaf gfed | egfd e2 |]

%%sep 1 1 500
%%sep 1 1 500

